X: 36869
T: Shirley's
R: reel
M: 4/4
K: Amajor
|:c2 Bc BA ~A2|Acea fe e2|faaf ecce|afeA cBBc|
A2 Ac BA ~A2|Acea fe e2|faaf eccA|1 BABc A2 ed:|2 BABc ABcd||
|:~e2 ef ecBA|dfaf eccd|~e2 ef ecBA|ddcd B2 cd|
~e2 ef ecBA|dfaf ecce|d2 fd c2 ec|1 BABc ABcd:|2 BABc Aeed||

